X: 90
T: Cai cha
L: 1/8
M: 2/4
K: G
E G d e [I:setbarnb 1]| 
G3A | 
B d A B | 
d2d B | 
A4 | 
A B d d | 
A B A G | 
E DG2- | 
G2A G | 
E GD2- | 
D ED2 |]

@@@ Tune index: 8964
